X: 34
T:Willie Fraser's Strathspey
M:4/4
L:1/8
R:Strathspey
O:B|"D"
K:D
g|"D"f2 d>B A>Bd>f|"G"g>ef>d "A"e/e/e e>g|"D"f2 d>B A>Bd>e|"D"f>a"A"e>f
 "D"d/d/d d>g|!
"D"f2 d>B A>Bd>f|"G"g>ef>d "A"e/e/e e>g|"D"f>de>f d>BA>F|"G"GF "D
"D/D/D D||!
B|"D"A<DF>E D>FA>f|"G"g>ef>d "A"e/e/e e>f|"D"A<DF>E D>FA>F|"G"GF 
"D"D/D/D D>B|!
"D"A<DF>E D>FA>f|"G"g>ef>d "A"e/e/e e>f|"D"A<DF>E D>FA>F|"G"G>B"A"A>F "D
"D/D/D D||
